_assets/logos/fds.svg

<?xml version="1.0" encoding="UTF-8" standalone="no"?>
<svg
   xmlns:dc="http://purl.org/dc/elements/1.1/"
   xmlns:cc="http://creativecommons.org/ns#"
   xmlns:rdf="http://www.w3.org/1999/02/22-rdf-syntax-ns#"
   xmlns:svg="http://www.w3.org/2000/svg"
   xmlns="http://www.w3.org/2000/svg"
   xmlns:sodipodi="http://sodipodi.sourceforge.net/DTD/sodipodi-0.dtd"
   xmlns:inkscape="http://www.inkscape.org/namespaces/inkscape"
   inkscape:version="1.0 (4035a4fb49, 2020-05-01)"
   sodipodi:docname="fds.svg"
   xml:space="preserve"
   enable-background="new 0 0 574.7 121.1"
   viewBox="0 0 578.09996 81.300004"
   height="81.300003"
   width="578.09998"
   y="0px"
   x="0px"
   id="Capa_1"
   version="1.0"><metadata
     id="metadata43"><rdf:RDF><cc:Work
         rdf:about=""><dc:format>image/svg+xml</dc:format><dc:type
           rdf:resource="http://purl.org/dc/dcmitype/StillImage" /><dc:title></dc:title></cc:Work></rdf:RDF></metadata><defs
     id="defs41" /><sodipodi:namedview
     lock-margins="true"
     inkscape:pagecheckerboard="true"
     inkscape:document-rotation="0"
     inkscape:current-layer="Capa_1"
     inkscape:window-maximized="0"
     inkscape:window-y="0"
     inkscape:window-x="0"
     inkscape:cy="42.649998"
     inkscape:cx="-20.551279"
     inkscape:zoom="0.47503044"
     fit-margin-bottom="5"
     fit-margin-right="5"
     fit-margin-left="5"
     fit-margin-top="5"
     showgrid="false"
     id="namedview39"
     inkscape:window-height="480"
     inkscape:window-width="712"
     inkscape:pageshadow="2"
     inkscape:pageopacity="0"
     guidetolerance="10"
     gridtolerance="10"
     objecttolerance="10"
     borderopacity="1"
     bordercolor="#666666"
     pagecolor="#ffffff" /><g
     transform="translate(0.5,-21.9)"
     id="g36"><polygon
       style="fill:#ffffff"
       id="polygon2"
       points="34.7,61 15.1,61 15.1,83.7 4.5,83.7 4.5,26.9 34.7,26.9 34.7,37.4 15.1,37.4 15.1,50.2 34.7,50.2 " /><path
       style="fill:#ffffff"
       inkscape:connector-curvature="0"
       id="path4"
       d="M 69,83.7 H 58.7 V 74.9 H 38.8 l -5.9,8.8 H 20.8 L 60.6,26.9 H 69 Z M 58.7,64.1 V 47.5 L 46.5,64.1 Z" /><polygon
       style="fill:#ffffff"
       id="polygon6"
       points="120,83.7 120,55.1 106.9,83.7 96.2,83.7 83.6,55.1 83.6,83.7 73,83.7 73,26.9 84.9,26.9 101.7,65.1 118.6,26.9 130.7,26.9 130.7,83.7 " /><polygon
       style="fill:#ffffff"
       id="polygon8"
       points="375.5,83.7 375.5,55.1 362.4,83.7 351.6,83.7 339,55.1 339,83.7 328.4,83.7 328.4,26.9 340.3,26.9 357.1,65.1 374,26.9 386.1,26.9 386.1,83.7 " /><rect
       style="fill:#ffffff"
       id="rect10"
       height="56.799999"
       width="11"
       y="26.9"
       x="134" /><polygon
       style="fill:#ffffff"
       id="polygon12"
       points="148,26.9 159,26.9 159,73.3 173.3,73.3 173.3,83.7 148,83.7 " /><polygon
       style="fill:#ffffff"
       id="polygon14"
       points="189.9,83.7 179.3,83.7 179.3,63 161.1,26.9 173.3,26.9 184.8,50.2 196,26.9 208.1,26.9 189.9,63 " /><path
       style="fill:#ffffff"
       inkscape:connector-curvature="0"
       id="path16"
       d="M 267.9,69" /><path
       style="fill:#ffffff"
       inkscape:connector-curvature="0"
       id="path18"
       d="M 267.8,42.6 C 263,33.4 253.4,27.2 242.3,27.2 c -15.9,0 -28.8,12.9 -28.8,28.8 0,15.9 12.9,28.8 28.8,28.8 11.2,0 20.9,-6.4 25.6,-15.6 l -13.1,0.1 c -3.2,3 -7.5,4.8 -12.2,4.8 -10,0 -18.1,-8.1 -18.1,-18.1 0,-10 8.1,-18.1 18.1,-18.1 4.7,0 8.9,1.8 12.1,4.7 z" /><path
       style="fill:#ffffff"
       inkscape:connector-curvature="0"
       id="path20"
       d="m 296.3,84.9 c -16,0 -29,-13 -29,-29 0,-16 13,-29 29,-29 16,0 29,13 29,29 0,16 -13,29 -29,29 z m 18.4,-29 c 0,-10.1 -8.2,-18.3 -18.3,-18.3 -10.1,0 -18.3,8.2 -18.3,18.3 0,10.1 8.2,18.3 18.3,18.3 10.1,0.1 18.3,-8.1 18.3,-18.3 z" /><path
       style="fill:#ffffff"
       inkscape:connector-curvature="0"
       id="path22"
       d="m 408.7,26.9 c 9.6,0.8 17.2,8.8 17.2,18.6 0,9.8 -7.6,17.8 -17.2,18.6 h -8.3 V 83.7 H 389.8 V 26.9 h 10.6 z m -8.3,10.9 v 15.4 h 8.3 c 3.6,-0.7 6.4,-3.9 6.4,-7.7 0,-3.8 -2.7,-7 -6.4,-7.7 z" /><path
       style="fill:#ffffff"
       inkscape:connector-curvature="0"
       id="path24"
       d="m 542.8,84.4 h -10.5 v -57 h 14.6 8.3 c 9.6,0.8 17.2,8.8 17.2,18.6 0,8 -5,14.8 -12.1,17.5 l 12.3,20.9 H 561 L 543.8,55 h -1 z m -6.6,-0.3 m 10.7,0 m 8.3,-30.4 c 3.6,-0.7 6.4,-3.9 6.4,-7.7 0,-3.8 -2.7,-7 -6.4,-7.7 h -12.4 v 15.4 z" /><path
       style="fill:#ffffff"
       inkscape:connector-curvature="0"
       id="path26"
       d="m 455.1,49.1 m 0,0 m -15.3,0 m -0.1,10.6 m 0,8.3 c 0.7,3.6 3.9,6.4 7.7,6.4 3.8,0 7,-2.7 7.7,-6.4 V 27.4 H 466 V 59.7 68 c -0.8,9.6 -8.8,17.2 -18.6,17.2 -9.8,0 -17.8,-7.6 -18.6,-17.2 V 59.7 27.4 h 10.9 z" /><polygon
       style="fill:#ffffff"
       id="polygon28"
       points="467.6,38.1 476.9,38.1 476.9,84.4 487.7,84.4 487.7,38.1 497.3,38.1 497.3,27.4 467.6,27.4 " /><polygon
       style="fill:#ffffff"
       id="polygon30"
       points="510.5,51.4 529.5,51.4 529.5,62 510.5,62 510.5,73.9 529.5,73.9 529.5,84.4 499.9,84.4 499.9,27.4 529.5,27.4 529.5,37.8 510.5,37.8 " /><path
       style="fill:#ffffff"
       inkscape:connector-curvature="0"
       id="path32"
       d="M 542.8,55.1" /><polygon
       style="fill:#ffffff"
       id="polygon34"
       points="561,98.2 572.5,92.7 4.5,92.7 4.5,98.2 " /></g></svg>

<?xml version="1.0" encoding="utf-8"?>
<!-- Generator: Adobe Illustrator 21.1.0, SVG Export Plug-In . SVG Version: 6.00 Build 0)  -->
<svg version="1.0" id="Capa_1" xmlns="http://www.w3.org/2000/svg" xmlns:xlink="http://www.w3.org/1999/xlink" x="0px" y="0px"
	 width="574.7px" height="121.1px" viewBox="0 0 574.7 121.1" enable-background="new 0 0 574.7 121.1" xml:space="preserve">
<g>
	<polygon fill="#FFFFFF" points="4.5,26.9 34.7,26.9 34.7,37.4 15.1,37.4 15.1,50.2 34.7,50.2 34.7,61 15.1,61 15.1,83.7 4.5,83.7 	
		"/>
	<path fill="#FFFFFF" d="M69,83.7H58.7v-8.8H38.8l-5.9,8.8H20.8l39.8-56.8H69V83.7z M58.7,64.1V47.5L46.5,64.1H58.7z"/>
	<polygon fill="#FFFFFF" points="73,26.9 84.9,26.9 101.7,65.1 118.6,26.9 130.7,26.9 130.7,83.7 120,83.7 120,55.1 106.9,83.7 
		96.2,83.7 83.6,55.1 83.6,83.7 73,83.7 	"/>
	<polygon fill="#FFFFFF" points="328.4,26.9 340.3,26.9 357.1,65.1 374,26.9 386.1,26.9 386.1,83.7 375.5,83.7 375.5,55.1 
		362.4,83.7 351.6,83.7 339,55.1 339,83.7 328.4,83.7 	"/>
	<rect x="134" y="26.9" fill="#FFFFFF" width="11" height="56.8"/>
	<polygon fill="#FFFFFF" points="148,26.9 159,26.9 159,73.3 173.3,73.3 173.3,83.7 148,83.7 	"/>
	<polygon fill="#FFFFFF" points="161.1,26.9 173.3,26.9 184.8,50.2 196,26.9 208.1,26.9 189.9,63 189.9,83.7 179.3,83.7 179.3,63 	
		"/>
	<path fill="#FFFFFF" d="M267.9,69"/>
	<path fill="#FFFFFF" d="M267.8,42.6c-4.8-9.2-14.4-15.4-25.5-15.4c-15.9,0-28.8,12.9-28.8,28.8c0,15.9,12.9,28.8,28.8,28.8
		c11.2,0,20.9-6.4,25.6-15.6l-13.1,0.1c-3.2,3-7.5,4.8-12.2,4.8c-10,0-18.1-8.1-18.1-18.1c0-10,8.1-18.1,18.1-18.1
		c4.7,0,8.9,1.8,12.1,4.7L267.8,42.6z"/>
	<path fill="#FFFFFF" d="M296.3,84.9c-16,0-29-13-29-29c0-16,13-29,29-29c16,0,29,13,29,29C325.3,71.9,312.3,84.9,296.3,84.9z
		 M314.7,55.9c0-10.1-8.2-18.3-18.3-18.3c-10.1,0-18.3,8.2-18.3,18.3c0,10.1,8.2,18.3,18.3,18.3C306.5,74.3,314.7,66.1,314.7,55.9z"
		/>
	<path fill="#FFFFFF" d="M408.7,26.9c9.6,0.8,17.2,8.8,17.2,18.6c0,9.8-7.6,17.8-17.2,18.6l-8.3,0v19.6h-10.6V26.9h10.6L408.7,26.9z
		 M400.4,37.8v15.4l8.3,0c3.6-0.7,6.4-3.9,6.4-7.7c0-3.8-2.7-7-6.4-7.7L400.4,37.8z"/>
	<path fill="#FFFFFF" d="M542.8,84.4h-10.5v-57l14.6,0l8.3,0c9.6,0.8,17.2,8.8,17.2,18.6c0,8-5,14.8-12.1,17.5l12.3,20.9H561
		L543.8,55h-1V84.4z M536.2,84.1 M546.9,84.1 M555.2,53.7c3.6-0.7,6.4-3.9,6.4-7.7c0-3.8-2.7-7-6.4-7.7l-12.4,0v15.4L555.2,53.7z"/>
	<path fill="#FFFFFF" d="M455.1,49.1 M455.1,49.1 M439.8,49.1 M439.7,59.7 M439.7,68c0.7,3.6,3.9,6.4,7.7,6.4c3.8,0,7-2.7,7.7-6.4
		l0-40.6H466v32.3l0,8.3c-0.8,9.6-8.8,17.2-18.6,17.2c-9.8,0-17.8-7.6-18.6-17.2l0-8.3l0-32.3h10.9L439.7,68z"/>
	<polygon fill="#FFFFFF" points="476.9,84.4 487.7,84.4 487.7,38.1 497.3,38.1 497.3,27.4 467.6,27.4 467.6,38.1 476.9,38.1 	"/>
	<polygon fill="#FFFFFF" points="529.5,84.4 499.9,84.4 499.9,27.4 529.5,27.4 529.5,37.8 510.5,37.8 510.5,51.4 529.5,51.4 
		529.5,62 510.5,62 510.5,73.9 529.5,73.9 	"/>
	<path fill="#FFFFFF" d="M542.8,55.1"/>
	<polygon fill="#FFFFFF" points="4.5,92.7 4.5,98.2 561,98.2 572.5,92.7 	"/>
</g>
</svg>
